X: 10371
T: BRUNSWICK WALTZ
C:
%R: waltz
B: Elias Howe "The Musician's Companion" Part 1 1842 p.32 #1
S: http://imslp.org/wiki/The_Musician's_Companion_(Howe,_Elias)
Z: 2015 John Chambers <jc:trillian.mit.edu>
M: 3/8
L: 1/16
K: F
% - - - - - - - - - - - - - - - - - - - - - - - - -
V: 1 staves=3
!pp!F>G |\
A2A2B2 | c4fd | c2c2 dB | A2A2 FG |\
A2A2B2 | c2f2a2 | g2gfga | f4 :: !ff!c2 |\
b2b2g2 | a2a2f2 | e2egfa | g2g2c2 |\
b2b2g2 | a2a2f2 | fedcde | f4 :|
|: !pp!AB |\
c2c2 fd | c2c2A2 | B2B2G2 | A2A2 AB |\
c2c2 fd | c2c2f2 | fedcde | f4 :: !ff!c2 |\
b2b2g2 | a2a2f2 | e2egfa | g2g2c2 |\
b2b2g2 | a2a2f2 | fedcde | f4 :|
% - - - - - - - - - - - - - - - - - - - - - - - - -
V: 2
A,>C |\
F2F2G2 | A4 dB | A2A2 BG | F2F2 A,C |\
F2F2G2 | A2c2f2 | B2B2B2 | A4 :: c2 |\
g2g2e2 | f2f2c2 | c2cedf | e2e2c2 |\
g2g2e2 | f2f2c2 | B2B2B2 | A4 :|
|: FG |\
A2A2 dB | A2A2F2 | G2G2E2 | F2F2 FG |\
A2A2 dB | A2A2A2 | B2B2B2 | A4 :: z2 |\
g2g2e2 | f2f2c2 | c2cedf | e2e2c2 |\
g2g2e2 | f2f2c2 | c2c2B2 | A4 :|
% - - - - - - - - - - - - - - - - - - - - - - - - -
V: 3 clef=bass middle=d
z2 |\
f2f2f2 | f4z2 | f2f2z2 | f2f2z2 |\
f2f2f2 | f4f2 | c2c2c2 | f4 :: z2 |\
e2e2z2 | f2f2 A2 | c2c2c2 | c2c2z2 |\
e2e2z2 | f2f2 A2 | c2c2c2 | F4 :|
|: z2 |\
f2f2f2 | f2f2f2 | c2c2c2 | f2f2z2 |\
f2f2f2 | f2f2f2 | c2c2c2 | f4 :: z2 |\
e2e2z2 | f2f2 A2 | c2c2c2 | c2c2z2 |\
e2e2z2 | f2f2 A2 | c2c2c2 | f4 :|
% - - - - - - - - - - - - - - - - - - - - - - - - -


